platform/ui/src/assets/icons/tool-bidirectional.svg

<?xml version="1.0" encoding="UTF-8"?>
<svg width="28px" height="28px" viewBox="0 0 28 28" version="1.1" xmlns="http://www.w3.org/2000/svg" xmlns:xlink="http://www.w3.org/1999/xlink">
    <title>tool-bidirectional</title>
    <g id="tool-bidirectional" stroke="none" stroke-width="1" fill="none" fill-rule="evenodd">
        <rect id="Rectangle" x="0" y="0" width="28" height="28"></rect>
        <g id="group" transform="translate(2.5, 2.5)" stroke="currentColor">
            <g id="Group-5" stroke-linecap="round" stroke-linejoin="round">
                <path d="M19.7288691,-0.335661423 C20.1766848,-0.335701004 20.6245155,-0.164922663 20.9661629,0.176604012 L22.785192,1.99444856 C23.0988548,2.30800052 23.2685446,2.7110041 23.2944775,3.12134197 C23.3217954,3.55359523 23.188997,3.99381095 22.8972982,4.34658876 L4.09686309,23.1566959 C3.72728287,23.5261645 3.24294798,23.7108988 2.75861309,23.7108988 C2.2742782,23.7108988 1.78994331,23.5261645 1.420283,23.1566158 L-0.19579707,21.5405357 C-0.56526569,21.1709555 -0.75,20.6866206 -0.75,20.2022857 C-0.75,19.7179508 -0.56526569,19.2336159 -0.195713448,18.8639521 L18.4915869,0.176901703 C18.833253,-0.16476434 19.2810535,-0.335621842 19.7288691,-0.335661423 Z" id="Path" stroke-width="1.5"></path>
                <line x1="4.1448988" y1="18.9142857" x2="5.71632738" y2="20.4765714" id="Path"></line>
                <line x1="6.5688988" y1="16.4902857" x2="8.14261309" y2="18.0502857" id="Path"></line>
                <line x1="8.9928988" y1="14.0662857" x2="10.5654702" y2="15.6274286" id="Path"></line>
                <line x1="11.4168988" y1="11.6422857" x2="12.9917559" y2="13.2011429" id="Path"></line>
                <line x1="13.8408988" y1="9.21714286" x2="15.4066131" y2="10.7874286" id="Path"></line>
                <line x1="16.1345622" y1="6.9234795" x2="17.7002765" y2="8.49376521" id="Path"></line>
                <line x1="18.5589283" y1="4.49911339" x2="20.1246426" y2="6.0693991" id="Path"></line>
            </g>
            <path d="M9.21155442,3 L3.86096848,3 C3.30868373,3 2.86096848,3.44771525 2.86096848,4 L2.86096848,6.5 C2.86096848,7.05228475 3.30868373,7.5 3.86096848,7.5 L9.21155442,7.5 L9.21155442,7.5" id="Path-6" stroke-width="1.5" transform="translate(6.0363, 5.25) rotate(-315) translate(-6.0363, -5.25)"></path>
            <path d="M21.0115544,14.7862614 L15.6609685,14.7862614 C15.1086837,14.7862614 14.6609685,15.2339767 14.6609685,15.7862614 L14.6609685,18.2862614 C14.6609685,18.8385462 15.1086837,19.2862614 15.6609685,19.2862614 L21.0115544,19.2862614 L21.0115544,19.2862614" id="Path-6" stroke-width="1.5" transform="translate(17.8363, 17.0363) rotate(-135) translate(-17.8363, -17.0363)"></path>
        </g>
    </g>
</svg>

<svg xmlns="http://www.w3.org/2000/svg" viewBox="0 0 27 27">
    <g fill="none" fill-rule="evenodd" stroke="currentColor">
        <g stroke-linecap="round" stroke-linejoin="round">
            <path stroke-width="1.5" d="M19.729-.336c.448 0 .895.171 1.237.513h0l1.819 1.817c.314.314.483.717.51 1.127.027.433-.106.873-.398 1.226h0l-18.8 18.81c-.37.37-.854.554-1.338.554-.485 0-.97-.185-1.339-.554h0L-.196 21.54c-.37-.37-.554-.854-.554-1.339 0-.484.185-.968.554-1.338h0L18.492.177c.341-.342.79-.513 1.237-.513z" transform="translate(2 2)"/>
            <path d="M4.145 18.914L5.716 20.477M6.569 16.49L8.143 18.05M8.993 14.066L10.565 15.627M11.417 11.642L12.992 13.201M13.841 9.217L15.407 10.787M16.135 6.923L17.7 8.494M18.559 4.499L20.125 6.069" transform="translate(2 2)"/>
        </g>
        <path stroke-width="1.5" d="M9.873 5.904L6.089 2.121c-.39-.39-1.024-.39-1.414 0L2.907 3.889c-.39.39-.39 1.023 0 1.414l3.784 3.783h0M14 16.382l3.783 3.783c.391.39 1.024.39 1.415 0l1.767-1.767c.39-.39.39-1.024 0-1.415L17.182 13.2h0" transform="translate(2 2)"/>
    </g>
</svg>
